X: 1
T: Walsh's
R: hornpipe
M: 4/4
L: 1/8
K: Amaj
c>B|:(3ABc E>F A>B c2|(3def B>c d>e f2|f>e c>e a>ec>A|(3Bcd c>A B>AF>A|
(3ABc E>F A>B c2|(3def B>c d>e f2|f>ec>e a>ec>A|1(3Bcd c>B A2 c>B:|2(3Bcd c>B A2 (3efg||
|:a>ec>e f>ec>e|a>ec>e f>ec>e|A>ec>e a>ec>A|(3Bcd c>A B>AF>B|
(3ABc E>F A>B c2|(3def B>c d>e f2|f>ec>e a>ec>A|1(3Bcd c>B A2(3efg:|2(3Bcd c>B A2 c>B||


Tune 2332	Setting 25244

